X:420
T:»Lagergrens vals»;
S:uppt. efter Lagergren själv.
R:vals
O:Gotland
M:3/4
L:1/8
K:A
c6|c2 B2 c2|e4 c2|c2 B2 c2|d4 B2|B2 A2 B2|c4 A2|E6|c6|c2 B2 c2|
e4 c2|c2 B2 c2|d3 e f2|g3 f e2|a2 z aec|A4 z2::a6-|a2 g2 a2|
c'4 a2|a2 g2 b2|e'6|e2 g2 b2|e'6-|(e'd') (d'c') (c'b)|b2 a2 a2|
a2 g2 a2|c'4 a2|a2 g2 b2|e'6|e2 g3 b|a2 z2 c'2|a6::f6|a2 g2 f2|
fe ee ee|c4 e2|ed dd dd|1 B4 d2|dc cc cB c6:|2 B2 z2 g2|
a2 z2 c'2|a6||

